X:1
T:Not What My Hands Have Done
T:Text: Horatius Bonar, 1861, alt. Tune: George William Martin, 1862
T:SMD LEOMINSTER www.hymnary.org/text/not_what_these_hands_have_done_bonar
T:Not What My Hands Have Done
T:This hymn is in the public domain. You may freely use this score for personal and congregational worship. If you reproduce the score, please credit Hymnary.org as the source. 
T:This hymn is in the public domain. You may freely use this score for personal and congregational worship. If you reproduce the score, please credit Hymnary.org as the source. 
Z:This hymn is in the public domain. You may freely use this score for personal and congregational worship. If you reproduce the score, please credit Hymnary.org as the source.
%%score ( 1 2 ) ( 3 4 )
L:1/8
M:4/4
K:D
V:1 treble nm="SOPRANO ALTO" snm="S. A."
V:2 treble 
V:3 bass nm="TENOR BASS" snm="T. B."
V:4 bass 
V:1
"^1""^2""^3" F2 | F2 F2 F2 F2 | G6 G2 | E2 E2 E2 F2 | E6 | E2 | F2 F2 A2 A2 | d2 d2 d2 D2 | %8
w: Not|what my hands have|done can|save my guilt- y|soul;|not|what my toil- ing|flesh has borne can|
w: Your|voice a- lone, O|Lord, can|speak to me of|grace;|your|power a- lone, O|Son of God, can|
w: I|praise the Christ of|God; I|rest on love di-|vine;|and|with un- fal- tering|lip and heart I|
 D2 F2 F2 E2 | D6 | D2 | G3 G G2 D2 | F6 F2 | B3 B B2 F2 | A6 |1 A2 | d3 d d2 c2 | c2 B2 A2 G2 | %18
w: make my spir- it|whole.|Not|what I feel or|do can|give me peace with|God;|not|all my prayers and|sighs and tears can|
w: all my sin e-|rase.|No|oth- er work but|yours, no|oth- er blood will|do;|no|strength but that which|is di- vine can|
w: call this Sav- ior|mine.|My|Lord has saved my|life and|free- ly par- don|gives;|I|love be- cause he|first loved me, I|
 F3 D F2 E2 | D6 x2 |] %20
w: bear my aw- ful|load.|
w: bear me safe- ly|through.|
w: live be- cause he|lives.|
V:2
 D2 | D2 D2 D2 D2 | D6 D2 | D2 D2 D2 D2 | C6 | C2 | D2 D2 E2 E2 | D2 F2 G2 D2 | D2 D2 C2 C2 | A,6 | %10
 D2 | D3 D D2 D2 | D6 D2 | F3 F F2 F2 | F6 |1 G2 | F3 F E2 E2 | E2 D2 ^D2 E2 | =D3 D C2 C2 | %19
 A,6 x2 |] %20
V:3
 A,2 | A,2 A,2 A,2 A,2 | G,6 G,2 | B,2 B,2 B,2 B,2 | A,6 | A,2 | A,2 A,2 A,2 E,2 | %7
 F,2 =C2 B,2 G,2 | F,2 A,2 A,2 G,2 | F,6 | F,2 | B,3 B, B,2 G,2 | A,6 A,2 | D3 D D2 B,2 | C6 |1 %15
 C2 | D2 A,2 ^A,2 A,2 | ^A,2 B,2 B,2 B,2 | =A,3 F, A,2 G,2 | F,6 x2 |] %20
V:4
 D,2 | D,2 D,2 D,2 C,2 | B,,6 B,,2 | G,,2 G,,2 ^G,,2 G,,2 | A,,6 | A,,2 | D,2 D,2 C,2 C,2 | %7
 B,,2 A,,2 G,,2 B,,2 | A,,2 A,,2 A,,2 A,,2 | D,6 | D,2 | G,,3 G,, G,,2 B,,2 | D,6 D,2 | %13
 B,,3 B,, B,,2 D,2 | F,6 |1 E,2 | D,3 D, F,2 F,,2 | G,,2 G,,2 B,,2 E,2 | A,,3 A,, A,,2 A,,2 | %19
 D,6 x2 |] %20

